src/assets/img/Copy.svg

<svg width="24" height="24" viewBox="0 0 24 24" fill="none" xmlns="http://www.w3.org/2000/svg">
  <defs>
    <linearGradient id="grad1" x1="0%" y1="0%" x2="100%" y2="100%" gradientTransform="rotate(129.45)">
      <stop offset="9.38%" style="stop-color:#4DA9EC;stop-opacity:1" />
      <stop offset="117.65%" style="stop-color:#0F67BE;stop-opacity:1" />
    </linearGradient>
  </defs>
  <path d="M15 9V4.6C15 4.26863 14.7314 4 14.4 4H4.6C4.26863 4 4 4.26863 4 4.6V14.4C4 14.7314 4.26863 15 4.6 15H9M19.4 20H9.6C9.26863 20 9 19.7314 9 19.4V9.6C9 9.26863 9.26863 9 9.6 9H19.4C19.7314 9 20 9.26863 20 9.6V19.4C20 19.7314 19.7314 20 19.4 20Z" stroke="url(#grad1)" stroke-width="1.5" stroke-linecap="round" stroke-linejoin="round"/>
</svg>

<svg xmlns="http://www.w3.org/2000/svg" width="24" height="24" fill="none"><defs><linearGradient id="a" x1="0%" x2="100%" y1="0%" y2="100%" gradientTransform="rotate(129.45)"><stop offset="9.38%" style="stop-color:#4da9ec;stop-opacity:1"/><stop offset="117.65%" style="stop-color:#0f67be;stop-opacity:1"/></linearGradient></defs><path stroke="url(#a)" stroke-linecap="round" stroke-linejoin="round" stroke-width="1.5" d="M15 9V4.6a.6.6 0 0 0-.6-.6H4.6a.6.6 0 0 0-.6.6v9.8a.6.6 0 0 0 .6.6H9m10.4 5H9.6a.6.6 0 0 1-.6-.6V9.6a.6.6 0 0 1 .6-.6h9.8a.6.6 0 0 1 .6.6v9.8a.6.6 0 0 1-.6.6Z"/></svg>
